X:2
T:Untitled
N:A version of "Tartan Plaid [2]"
M:4/4
L:1/8
R:Reel
S:Mrs. Long (Glin, County Limerick) [Breathnach & Small]
B:Breathnach & Small - Ceol Rince na hEirreann vol. 5 (1999, No. 204)
K:Dmix
dc|AB{d}cA G~E3|c~E3 G~E3|AB{d}cA G~E3|{d}cAGE D2D2|
AB{d}cA G~E3|c~E3 G~E3|G~E3 c~E3|GAGE D2D2||
K:Edor
e~f3 edcd|ea{b}ag fdcd|e~f3 edcd|eage d2 cd|
e~f3 edcd|ea{b}ag abag|f2 ~f2 edcd|eage d2!D.C.!||

